X: 479
T: Cluck Old Hen
C:Adam Steffey solo
B: jims roots
M:4/4
Q: 1/4=100
K:A
V:1 
"A"gg |g2f2e2Ac | "D"defa "A"eA{=g}(^g2 | g2)f2 "E"e^d=c^c | "A"A2{f}(=g g2)a2 |
=g2 (3fgf edce | d"D"efa "A"eA{f}=(g2 | g2)f2 "E"e^d=c^c | "A"A=GE2 EGA2 ||
=c^cce =cBA=G | "G"EF=GB "A"A2{^d}e2 | e2e2 "E"e^d=c^c | "A"A=GE2 EGA2 |
=c^cce =cBA=G | "G"EF=GB "A"AB=c^c | fc=fc "E"e^d=c^c | "A"A8 ||
% abcbook-tune_id 6298c2456148afd01090d473


% abcbook-boost 0
% abcbook-tablature 
% abcbook-transpose 
% abcbook-lastupdated 1654178373752
% abcbook-soundfonts 
% abcbook-repeats 1


